svgs/sharp-light/bangladeshi-taka-sign.svg

<svg xmlns="http://www.w3.org/2000/svg" viewBox="0 0 384 512"><!--! Font Awesome Pro 6.6.0 by @fontawesome - https://fontawesome.com License - https://fontawesome.com/license (Commercial License) Copyright 2024 Fonticons, Inc. --><path d="M32 64l16 0c26.5 0 48 21.5 48 48l0 80-64 0 0 32 64 0 0 176c0 44.2 35.8 80 80 80l32 0c97.2 0 176-78.8 176-176l0-32c0-44.2-35.8-80-80-80l-48 0 0 32 48 0c26.5 0 48 21.5 48 48l0 32c0 79.5-64.5 144-144 144l-32 0c-26.5 0-48-21.5-48-48l0-176 64 0 0-32-64 0 0-80c0-44.2-35.8-80-80-80L32 32l0 32z"/></svg>

<svg xmlns="http://www.w3.org/2000/svg" viewBox="0 0 384 512"><!--! Font Awesome Pro 6.5.2 by @fontawesome - https://fontawesome.com License - https://fontawesome.com/license (Commercial License) Copyright 2024 Fonticons, Inc. --><path d="M32 64H48c26.5 0 48 21.5 48 48v80H32v32H96V400c0 44.2 35.8 80 80 80h32c97.2 0 176-78.8 176-176V272c0-44.2-35.8-80-80-80H256v32h48c26.5 0 48 21.5 48 48v32c0 79.5-64.5 144-144 144H176c-26.5 0-48-21.5-48-48V224h64V192H128V112c0-44.2-35.8-80-80-80H32V64z"/></svg>
